symbols/web/queue_play_next/materialsymbolssharp/queue_play_next_wght300fill1_20px.svg

<svg xmlns="http://www.w3.org/2000/svg" height="20" width="20"><path d="M9.292 12.312h1.333V9.854h2.458V8.521h-2.458V6.062H9.292v2.459H6.833v1.333h2.459Zm6.875 6.126-.917-.917 2.583-2.583-2.583-2.563.917-.917 3.458 3.5Zm-9.396-1.355v-1.666H2.042v-12.5h15.833V10h-3.792v5.417h-.937v1.666Z"/></svg>

<svg xmlns="http://www.w3.org/2000/svg" height="20" width="20"><path d="M9.292 12.312H10.625V9.854H13.083V8.521H10.625V6.062H9.292V8.521H6.833V9.854H9.292ZM16.167 18.438 15.25 17.521 17.833 14.938 15.25 12.375 16.167 11.458 19.625 14.958ZM6.771 17.083V15.417H2.042V2.917H17.875V10H14.083V15.417H13.146V17.083Z"/></svg>
